X: 3337
T: BYRNE'S HORNPIPE
R: Hornpipe.
%R: hornpipe, reel
B: James Kerr "Merry Melodies" v.3 p.36 #337
Z: 2016 John Chambers <jc:trillian.mit.edu>
M: C
L: 1/8
K: D
uA2 |\
dAFA BGEG | FA d4 c2 |\
(Bg)(gf) (fe)(ed) | c2A2 A3G |\
FABc dAGF | Edcd ecAg |\
fgaf bgec | d2d2d2 :|
|: (ufe) |\
dfba gfed | ceag fedc |\
Bdgf edcd | B2B2 B3c |\
d2(df) dAGF | Edcd ecAg |\
fgaf bgec | d2d2d2 :|

%%sep 1 1 500
%%sep 1 1 500

